public/assets/images/Icons/ember-test-selectors.svg

<svg xmlns="http://www.w3.org/2000/svg" width="58" height="77" viewBox="0 0 58 77">
  <path fill="#16D46D" d="M29,10 C36.6912782,10 44.0675417,13.0553484 49.5060967,18.4939033 C54.9446516,23.9324583 58,31.3087218 58,39 C58,55.0162577 45.0162577,68 29,68 C12.9837423,68 -1.96142588e-15,55.0162577 0,39 C1.96142588e-15,22.9837423 12.9837423,10 29,10 Z M29,26.3125 C26.9979678,26.3125 25.375,27.9354678 25.375,29.9375 C25.375,31.9395322 26.9979678,33.5625 29,33.5625 C31.0020322,33.5625 32.625,31.9395322 32.625,29.9375 C32.625,27.9354678 31.0020322,26.3125 29,26.3125 Z M29,66.1875 C43.6258496,66.1371371 55.5908922,54.5248229 56.0787538,39.9070254 C56.5666154,25.2892279 45.4024457,12.9049878 30.8125,11.8795625 L30.8125,22.9249375 C32.832714,23.443461 34.5308539,24.8086403 35.4713063,26.6702742 C36.4117587,28.5319081 36.5030115,30.7088477 35.7216562,32.6426563 L42.8810313,38.3601875 L37.9800312,54.04375 L34.5199688,52.95625 L38.6814688,39.6425312 L33.5729375,35.5644062 C30.9100928,37.7333686 27.0899072,37.7333686 24.4270625,35.5644062 L19.3185313,39.6425312 L23.4800313,52.95625 L20.0199688,54.04375 L15.11625,38.3574688 L22.275625,32.6399375 C21.4952812,30.7060634 21.5873863,28.5295191 22.5283198,26.6684846 C23.4692533,24.80745 25.1674852,23.4429586 27.1875,22.9249375 L27.1875,11.8795625 C12.5975543,12.9049878 1.43338461,25.2892279 1.92124622,39.9070254 C2.40910783,54.5248229 14.3741504,66.1371371 29,66.1875 Z M29,31.75 C27.9989839,31.75 27.1875,30.9385161 27.1875,29.9375 C27.1875,28.9364839 27.9989839,28.125 29,28.125 C30.0010161,28.125 30.8125,28.9364839 30.8125,29.9375 C30.8125,30.9385161 30.0010161,31.75 29,31.75 Z"/>
</svg>

<svg xmlns="http://www.w3.org/2000/svg" width="58" height="77"><path fill="#16D46D" d="M29 10a29 29 0 0 1 29 29c0 16.016-12.984 29-29 29S0 55.016 0 39s12.984-29 29-29zm0 16.313a3.625 3.625 0 1 0 0 7.25 3.625 3.625 0 0 0 0-7.25zm0 39.874c14.626-.05 26.59-11.662 27.079-26.28.488-14.618-10.677-27.002-25.267-28.027v11.045a7.235 7.235 0 0 1 4.91 9.718l7.159 5.717-4.901 15.684-3.46-1.088 4.161-13.313-5.108-4.079a7.24 7.24 0 0 1-9.146 0l-5.108 4.079 4.161 13.313-3.46 1.088-4.904-15.687 7.16-5.717a7.235 7.235 0 0 1 4.912-9.715V11.88C12.598 12.905 1.433 25.29 1.92 39.907 2.41 54.525 14.374 66.137 29 66.187zm0-34.437a1.813 1.813 0 1 1 0-3.625 1.813 1.813 0 0 1 0 3.625z"/></svg>
